X:1
T:Title
%%score 1 2 3 4
L:1/8
M:6/2
K:C
V:1 treble nm="Part_1"
V:2 treble-8 nm="Part_2"
V:3 treble-8 nm="Part_3"
V:4 bass nm="Part_4"
V:1
 z24 | z24 | E12 D2 C2 D8 | C8 E8 G8 | E6 DE F4 E6 C2 c4- | c4 B8 A4 G4 F4 | E4 A8 G6 FEFEDC | %7
 B,4 C8 B,4 C8- | C8 z4 E4 A4 A4 | G4 E6 F2 G6 C2 c4 | _B4 A4 B4 A8 G4 | A8 z4 G4 F8 | %12
 D4 E4 D4 E4 A,4 A4- | A2 G2 F6 E2 D2 C2 B,4 C4 | B,4 C8 B,2 A,2 C4 B,4 | z4 E4 F4 D4 E8 | %16
 D4 A4 B4 A4 d8 | c24 | z4 C4 E4 E4 F2 E2 D2 C2 | E8 z4 C4 E4 E4 | G8 z4 G4 A4 B4 | %21
 c4 C4 E4 E4 G2 F2 E2 D2 | C8 z4 F4 A4 A4 | c4 C4 E4 E4 G8 | A4 c6 B2 A2 G2 A4 A4 | G24 |] %26
V:2
 B12 A2 G2 A8 | G6 A2 B2 G2 c8 B4 | c6 AG G4 A8 G4 | A2 B2 c2 A2 B4 c8 B4 | c16 z4 c4 | %5
 e4 d8 c4 B2 c2 d2 B2 | c6 d2 e4 c4 d8 | z8 d8 e8- | e8 c8 d8 | B8 e8 e8 | d8 z8 d8 | c16 A8 | %12
 B16 c6 B2 | c4 d6 c2 B2 A2 G8- | G8 A8 G6 A2 | B2 G2 c8 B4 c6 B2 | A4 D2 E2 F2 G2 A8 G4 | %17
 A8 z4 E4 A4 A4 | c6 BA G4 c8 B4 | c8 C8 z8 | z4 G4 B4 B4 d8 | e8 c8 B8 | A4 F4 A4 A4 c8- | %23
 c4 B2 A2 G8 e6 d2 | c2 B2 A6 B2 c8 A4 | c4 B4 B16 |] %26
V:3
 z24 | z24 | z24 | E12 D2 C2 D8 | C16 E8 | G16 G8 | A16 A8 | G8 z8 G8 | A16 F8 | G16 E8 | F16 D8 | %11
 E16 z8 | z24 | z24 | z24 | z8 z8 G8 | F16 D8 | E16 F8 | E16 D8 | C8 z8 C8 | E16 F8 | G16 E8 | %22
 F16 F8 | E24- | E24 | E24 |] %26
V:4
 z24 | E,12 D,2 C,2 D,8 | C,12 B,,2 A,,2 B,,4 B,,4 | A,,8 z8 G,,8 | A,,16 A,,8 | G,,16 z8 | %6
 z8 z8 D,8 | E,4 C,4 G,8 C,8 | z8 z8 D,8 | E,16 C,8 | D,12 C,4 _B,,4 B,,4 | %11
 A,,6 B,,2 C,2 D,2 E,2 C,2 D,8 | G,,8 G,8 F,8- | F,8 D,8 E,8- | E,8 F,8 E,8- | %15
 E,4 D,2 C,2 D,4 D,4 C,8 | D,16 B,,8 | A,,16 z4 F,,4 | A,,4 A,,4 C,8 G,,8 | z4 C,4 E,4 E,4 G,8 | %20
 C,4 G,8 F,2 E,2 D,4 D,4 | C,16 z8 | z8 z8 z4 F,,4 | A,,4 A,,4 C,12 B,,4 | A,,16 A,,8 | E,,24 |] %26

